gazprombank/images/benefit/percent.svg

<svg width="210" height="141" viewBox="0 0 210 141" fill="none" xmlns="http://www.w3.org/2000/svg">
<path d="M210 0.57308C209.683 1.45323 209.506 2.04347 209.264 2.60238C197.996 28.5454 186.73 54.4884 175.465 80.4314C171.565 89.447 167.499 98.353 161.438 106.138C147.151 124.47 128.706 135.525 105.997 139.012C101.419 139.708 96.7967 140.061 92.1678 140.067C62.4758 140.161 32.7812 140.117 3.08914 140.109C2.18643 140.109 1.29907 139.997 0 139.913C0.698125 138.229 1.22747 136.891 1.79006 135.575C13.6318 108.361 25.4803 81.1461 37.3356 53.9303C47.695 30.2265 64.7645 13.8145 88.8127 5.18014C96.9933 2.23674 105.468 0.601808 114.186 0.570468C145.189 0.474705 176.194 0.398095 207.2 0.340637C208.041 0.340637 208.882 0.476446 210 0.57308Z" fill="#D5E5FD"/>
<path d="M102.728 110.27C99.8328 109.594 97.4035 107.941 94.9457 106.365C93.1335 105.202 91.0961 105.092 89.0572 104.904C87.7165 104.801 86.3823 104.624 85.0604 104.374C81.8234 103.709 79.6839 101.628 78.3041 98.6548C77.7741 97.5074 77.2636 96.3447 76.8282 95.1574C76.1192 93.1881 74.8884 91.4582 73.2729 90.1603C72.2219 89.3039 71.222 88.3771 70.2431 87.4319C67.4369 84.7173 66.6457 81.3853 67.4535 77.5938C67.7057 76.4035 67.9444 75.207 68.2702 74.0366C68.9549 71.5564 68.5134 69.1605 67.9234 66.7492C67.5999 65.393 67.3652 64.0163 67.2207 62.6283C66.9024 59.7253 67.9234 57.2665 69.8872 55.2245C70.9562 54.1183 72.0872 53.0764 73.2744 52.1039C74.8787 50.7949 76.1087 49.0701 76.8357 47.1098C77.3829 45.6632 78.0049 44.2473 78.699 42.8679C80.2559 39.7872 82.8143 38.102 86.152 37.6608C87.9537 37.4203 89.7689 37.2579 91.5796 37.0833C92.9053 36.9546 94.0719 36.4169 95.1949 35.7321C96.5642 34.8972 97.9155 34.0301 99.3193 33.2596C102.622 31.4504 105.918 31.5928 109.169 33.422C110.163 33.9538 111.126 34.5447 112.053 35.1913C114.17 36.7371 116.557 37.238 119.096 37.3682C120.439 37.4417 121.776 37.6152 123.094 37.8876C126.333 38.5494 128.471 40.6343 129.841 43.6078C130.424 44.8701 130.97 46.1554 131.464 47.456C132.158 49.2943 133.284 50.7619 134.768 51.9982C135.849 52.9005 136.894 53.8519 137.908 54.8308C140.7 57.5208 141.492 60.8329 140.721 64.5968C140.471 65.8224 140.219 67.0357 139.884 68.2291C139.189 70.7108 139.643 73.1052 140.233 75.5211C140.556 76.8773 140.79 78.254 140.934 79.642C141.254 82.5772 140.2 85.0467 138.215 87.1056C137.162 88.1917 136.048 89.2147 134.879 90.1694C133.273 91.4767 132.042 93.2021 131.317 95.1636C130.769 96.6078 130.146 98.0217 129.453 99.3994C127.896 102.491 125.331 104.156 121.995 104.608C120.44 104.816 118.872 104.956 117.306 105.068C115.486 105.202 113.896 105.91 112.379 106.891C110.427 108.153 108.485 109.469 106.185 110.033C105.928 110.095 105.679 110.196 105.435 110.279L102.728 110.27ZM72.3225 80.1062C72.3038 80.6497 72.3924 81.1915 72.583 81.6994C72.7737 82.2073 73.0624 82.671 73.4321 83.0628C74.0987 83.7843 74.7743 84.5181 75.546 85.1095C78.6479 87.4855 80.897 90.4712 82.1417 94.2429C82.451 95.1758 82.9224 96.0551 83.3564 96.9421C84.02 98.2994 85.146 99.0348 86.5889 99.2523C87.5753 99.4055 88.5677 99.525 89.5617 99.5709C92.8648 99.7241 95.9622 100.49 98.7202 102.442C99.558 103.036 100.469 103.514 101.345 104.06C103.154 105.172 104.965 105.19 106.78 104.075C107.784 103.462 108.798 102.858 109.79 102.224C111.604 101.066 113.511 100.148 115.658 99.8911C117.267 99.6981 118.881 99.5449 120.498 99.4315C122.705 99.2661 124.357 98.3408 125.21 96.1624C125.589 95.1957 126.049 94.2612 126.402 93.2854C127.484 90.2905 129.275 87.8516 131.724 85.8708C132.767 85.0008 133.759 84.0694 134.695 83.0812C135.467 82.2907 135.87 81.2873 135.713 80.1598C135.527 78.8321 135.291 77.5111 135.005 76.1967C134.514 73.957 133.964 71.7203 134.365 69.4102C134.676 67.6117 135.047 65.8193 135.494 64.0484C136.113 61.5973 135.592 59.5798 133.607 57.9988C133.175 57.6556 132.793 57.242 132.355 56.9081C129.413 54.7113 127.214 51.6365 126.059 48.1086C125.732 47.1282 125.237 46.2029 124.779 45.273C124.126 43.9433 123.018 43.2187 121.602 43.0012C120.617 42.8409 119.626 42.734 118.63 42.681C115.302 42.5278 112.185 41.7526 109.4 39.7887C108.481 39.1391 107.484 38.6014 106.51 38.0362C104.905 37.1032 103.283 37.1017 101.674 38.0178C100.803 38.5141 99.9424 39.0273 99.0986 39.5681C97.1468 40.8181 95.1574 41.987 92.8287 42.3057C91.1502 42.5354 89.4581 42.704 87.7675 42.8112C85.4688 42.9644 83.7677 43.9173 82.8924 46.1815C82.5081 47.1726 82.0441 48.1331 81.6778 49.132C80.6163 52.0212 78.8732 54.3758 76.5129 56.2984C75.4717 57.1758 74.4754 58.1074 73.5281 59.0895C72.6874 59.9336 72.276 60.9983 72.4381 62.2132C72.5883 63.2855 72.7114 64.3885 73.0072 65.4302C74.0581 69.1069 74.1903 72.7728 73.0822 76.4724C72.7279 77.6474 72.5702 78.8913 72.3225 80.1062Z" fill="#4267E5"/>
<path d="M92.8918 72.5216C90.8238 72.5212 88.8399 71.686 87.3732 70.1984C85.9065 68.7108 85.0762 66.6916 85.0635 64.5815C85.0455 60.1389 88.5618 56.5833 92.9834 56.5894C97.2234 56.5894 100.713 60.1619 100.743 64.5218C100.773 68.923 97.2459 72.5154 92.8918 72.5216ZM88.6053 64.5555C88.6124 65.4203 88.87 66.2637 89.3458 66.9795C89.8215 67.6953 90.4941 68.2515 91.2789 68.5782C92.0638 68.9049 92.9258 68.9875 93.7565 68.8156C94.5872 68.6436 95.3495 68.2248 95.9475 67.6119C96.5455 66.999 96.9525 66.2193 97.1172 65.3709C97.282 64.5226 97.1972 63.6434 96.8734 62.8441C96.5497 62.0448 96.0015 61.3611 95.2978 60.8789C94.5942 60.3967 93.7665 60.1377 92.9188 60.1343C92.3509 60.1337 91.7885 60.2476 91.2639 60.4696C90.7393 60.6915 90.2629 61.017 89.8621 61.4275C89.4612 61.8379 89.1438 62.3252 88.9281 62.8612C88.7124 63.3972 88.6027 63.9715 88.6053 64.5509V64.5555Z" fill="#4267E5"/>
<path d="M115.227 85.6717C113.159 85.6665 111.177 84.8275 109.712 83.3377C108.248 81.8478 107.42 79.8278 107.409 77.7179C107.386 73.3151 110.907 69.7518 115.276 69.7426C116.302 69.7459 117.316 69.9553 118.262 70.3587C119.208 70.7621 120.067 71.3516 120.79 72.0937C121.512 72.8358 122.085 73.7158 122.474 74.6836C122.863 75.6513 123.062 76.6878 123.059 77.734C123.056 78.7801 122.85 79.8153 122.455 80.7805C122.06 81.7457 121.482 82.622 120.755 83.3594C120.027 84.0968 119.165 84.6808 118.216 85.078C117.268 85.4753 116.252 85.6781 115.227 85.6747V85.6717ZM119.545 77.7056C119.538 76.8408 119.28 75.9974 118.804 75.2816C118.329 74.5658 117.656 74.0096 116.871 73.6829C116.086 73.3562 115.224 73.2736 114.394 73.4455C113.563 73.6175 112.801 74.0363 112.203 74.6492C111.605 75.2621 111.198 76.0418 111.033 76.8902C110.868 77.7385 110.953 78.6177 111.277 79.417C111.6 80.2163 112.149 80.9 112.852 81.3822C113.556 81.8644 114.384 82.1234 115.231 82.1268C115.801 82.1303 116.365 82.0182 116.892 81.7971C117.418 81.576 117.896 81.2502 118.299 80.8388C118.701 80.4274 119.019 79.9386 119.234 79.4007C119.449 78.8628 119.557 78.2866 119.552 77.7056H119.545Z" fill="#4267E5"/>
<path d="M114.41 55.8464C114.314 56.1655 114.193 56.476 114.048 56.7748C108.42 66.9397 102.785 77.1015 97.1438 87.2603C96.5432 88.3465 95.5463 88.6911 94.6439 88.1611C93.7416 87.631 93.4909 86.5863 94.0854 85.5154C99.7277 75.3321 105.374 65.1519 111.026 54.9748C111.517 54.0893 112.281 53.7094 113.056 53.9147C113.83 54.12 114.396 54.8246 114.41 55.8464Z" fill="#4267E5"/>
</svg>

<svg xmlns="http://www.w3.org/2000/svg" width="210" height="141" fill="none" viewBox="0 0 210 141"><path fill="#D5E5FD" d="M210 .573c-.317.88-.494 1.47-.736 2.03a874680.214 874680.214 0 0 0-33.799 77.828c-3.9 9.016-7.966 17.922-14.027 25.707-14.287 18.332-32.732 29.387-55.441 32.874a92.806 92.806 0 0 1-13.83 1.055c-29.691.094-59.386.05-89.078.042-.903 0-1.79-.112-3.089-.196.698-1.684 1.227-3.022 1.79-4.338 11.842-27.214 23.69-54.429 35.546-81.645C47.695 30.227 64.764 13.815 88.813 5.18c8.18-2.943 16.655-4.578 25.373-4.61C145.189.475 176.194.398 207.2.34c.841 0 1.682.136 2.8.233Z"/><path fill="#4267E5" d="M102.728 110.27c-2.895-.676-5.325-2.329-7.782-3.905-1.813-1.163-3.85-1.273-5.889-1.461a36.59 36.59 0 0 1-3.997-.53c-3.237-.665-5.376-2.746-6.756-5.72a47.03 47.03 0 0 1-1.476-3.497 11.333 11.333 0 0 0-3.555-4.997c-1.051-.856-2.051-1.783-3.03-2.728-2.806-2.715-3.597-6.047-2.79-9.838.253-1.19.491-2.387.817-3.557.685-2.48.243-4.877-.347-7.288a32.076 32.076 0 0 1-.702-4.12c-.319-2.904.702-5.362 2.666-7.404a39.662 39.662 0 0 1 3.387-3.121 11.685 11.685 0 0 0 3.562-4.994 44.329 44.329 0 0 1 1.863-4.242c1.557-3.08 4.115-4.766 7.453-5.207 1.802-.24 3.617-.403 5.428-.578 1.325-.128 2.492-.666 3.615-1.35 1.37-.836 2.72-1.703 4.124-2.473 3.303-1.81 6.599-1.667 9.85.162a28.74 28.74 0 0 1 2.884 1.77c2.117 1.545 4.504 2.046 7.043 2.176 1.343.074 2.68.247 3.998.52 3.239.661 5.377 2.746 6.747 5.72a60.028 60.028 0 0 1 1.623 3.848c.694 1.838 1.82 3.306 3.304 4.542a58.602 58.602 0 0 1 3.14 2.833c2.792 2.69 3.584 6.002 2.813 9.766-.25 1.225-.502 2.439-.837 3.632-.695 2.482-.241 4.876.349 7.292.323 1.356.557 2.733.701 4.121.32 2.935-.734 5.405-2.719 7.464a39.056 39.056 0 0 1-3.336 3.063 11.638 11.638 0 0 0-3.562 4.995 44.787 44.787 0 0 1-1.864 4.235c-1.557 3.092-4.122 4.757-7.458 5.209a76.605 76.605 0 0 1-4.689.46c-1.82.134-3.41.842-4.927 1.823-1.952 1.262-3.894 2.578-6.194 3.142-.257.062-.506.163-.75.246l-2.707-.009ZM72.323 80.106a4.113 4.113 0 0 0 1.11 2.957c.666.721 1.341 1.455 2.113 2.046 3.102 2.377 5.351 5.362 6.596 9.134.309.933.78 1.812 1.214 2.7.664 1.356 1.79 2.092 3.233 2.31.986.153 1.979.272 2.973.318 3.303.153 6.4.919 9.158 2.871.838.594 1.749 1.072 2.625 1.618 1.809 1.112 3.62 1.13 5.435.015 1.004-.613 2.018-1.217 3.01-1.851 1.814-1.158 3.721-2.076 5.868-2.333a98.502 98.502 0 0 1 4.84-.46c2.207-.165 3.859-1.09 4.712-3.269.379-.966.839-1.9 1.192-2.877 1.082-2.995 2.873-5.433 5.322-7.414a34.76 34.76 0 0 0 2.971-2.79c.772-.79 1.175-1.794 1.018-2.921a53.625 53.625 0 0 0-.708-3.963c-.491-2.24-1.041-4.477-.64-6.787.311-1.798.682-3.59 1.129-5.362.619-2.45.098-4.468-1.887-6.05-.432-.342-.814-.756-1.252-1.09a17.934 17.934 0 0 1-6.296-8.8c-.327-.98-.822-1.905-1.28-2.835-.653-1.33-1.761-2.054-3.177-2.272a27.634 27.634 0 0 0-2.972-.32c-3.328-.153-6.445-.928-9.23-2.892-.919-.65-1.916-1.188-2.89-1.753-1.605-.933-3.227-.934-4.836-.018a57.763 57.763 0 0 0-2.575 1.55c-1.952 1.25-3.942 2.419-6.27 2.738a70.08 70.08 0 0 1-5.061.505c-2.3.153-4 1.106-4.876 3.37-.384.992-.848 1.952-1.214 2.951-1.062 2.89-2.805 5.244-5.165 7.166a39.614 39.614 0 0 0-2.985 2.791c-.84.845-1.252 1.91-1.09 3.124.15 1.072.273 2.175.57 3.217 1.05 3.677 1.182 7.343.074 11.042-.354 1.175-.512 2.42-.76 3.634Z"/><path fill="#4267E5" d="M92.892 72.522a7.751 7.751 0 0 1-5.519-2.324 8.07 8.07 0 0 1-2.31-5.616c-.017-4.443 3.499-7.999 7.92-7.993 4.24 0 7.73 3.573 7.76 7.933.03 4.401-3.497 7.993-7.851 8Zm-4.287-7.967a4.45 4.45 0 0 0 .74 2.424 4.315 4.315 0 0 0 1.934 1.6 4.224 4.224 0 0 0 2.478.237 4.272 4.272 0 0 0 2.19-1.204 4.412 4.412 0 0 0 1.17-2.241 4.466 4.466 0 0 0-.244-2.527 4.367 4.367 0 0 0-1.575-1.965 4.237 4.237 0 0 0-2.38-.745c-.567 0-1.13.114-1.654.336a4.302 4.302 0 0 0-1.402.958c-.4.41-.718.897-.934 1.433a4.474 4.474 0 0 0-.323 1.69v.004Zm26.622 21.117a7.761 7.761 0 0 1-5.515-2.334 8.08 8.08 0 0 1-2.303-5.62c-.023-4.403 3.498-7.966 7.867-7.975a7.67 7.67 0 0 1 2.986.616 7.805 7.805 0 0 1 2.528 1.735 7.985 7.985 0 0 1 1.684 2.59 8.119 8.119 0 0 1-.019 6.097 7.975 7.975 0 0 1-1.7 2.578 7.801 7.801 0 0 1-2.539 1.719 7.68 7.68 0 0 1-2.989.597v-.003Zm4.318-7.966a4.445 4.445 0 0 0-.741-2.424 4.31 4.31 0 0 0-1.933-1.6 4.217 4.217 0 0 0-2.477-.237 4.271 4.271 0 0 0-2.191 1.204 4.415 4.415 0 0 0-1.17 2.241 4.463 4.463 0 0 0 .244 2.527 4.36 4.36 0 0 0 1.575 1.965 4.24 4.24 0 0 0 4.04.415 4.307 4.307 0 0 0 1.407-.958c.402-.412.72-.9.935-1.438a4.465 4.465 0 0 0 .318-1.695h-.007Zm-5.135-21.86a6.23 6.23 0 0 1-.362.929A27929.575 27929.575 0 0 1 97.144 87.26c-.6 1.087-1.598 1.431-2.5.901-.902-.53-1.153-1.575-.559-2.646a35385.238 35385.238 0 0 1 16.941-30.54c.491-.886 1.255-1.266 2.03-1.06.774.205 1.34.91 1.354 1.931Z"/></svg>
